!!!OTL: Graf Wattenwill.
!!!OTL-incipit: NUN HOERET ZU UND SCHWEIGET STILL
!!!ARE: Europa, Mitteleuropa, Deutschland, Lothringen
!!!SCT: Z1004
!!!TXL: @@DE
!!!YEM: Copyright 1995, estate of Helmut Schaffrath.
**kern	**text
*ICvox	*
*M6/8	*
*k[b-e-a-]	*
*c:	*
!LO:TX:a:t=Jn Lotharingen erhalten.	!
{8g	Nun
=1	=1
4c	hö-
8d	-ret
4e-	ʒu
8f	und
=2	=2
4g	ſchweiget
8g	.
4f}	ſtill:
{8g	ich
=3	=3
4a-	ſing
8g	vom
8fL	Gra-
8e-J	.
8f	-fen
=4	=4
4g	Wat-
8g	-ten-
4g}	-will,
{8g	wie
=5	=5
8gL	es
8a-J	.
8b-/	ihm
8b-L	iſt
8a-J	.
8g	er-
=6	=6
(4g	-gan-
8f)	.
4f}	-gen;
{8f	er
=7	=7
8e-L	iſt
8fJ	.
8g	ge-
8g	-ʒo-
8f	-gen
8e-	in_den
=8	=8
4e-	Ungarſchen
8d	.
4d}	Krieg,
{16g	von
16g	den
=9	=9
8gL	Tür-
8fJ	.
8e-	-ken
8d	ward
8c	er
8B	ge-
=10	=10
[>4.c	-fan-
4c]}	-gen.
==	==
!!!AGN: Romanze, Ballade
!!!ONB: ESAC (Essen Associative Code) Database: ZUCCAL
!!!AMT: compound duple
!!!AIN: vox
!!!EED: Helmut Schaffrath
!!!EEV: 1.0
!!!RDF**kern: >= above
!!!GTL: I. Volks- Leuschen.
!!!URL-scan: https://www.digitale-sammlungen.de/de/view/bsb11160573?page=19
!!!ENC: Anna Maria Matuszewska
!!!EEV: 2025/01/31
*-	*-
